X: 13
T: Elite Syncopations Rag
C: Scott Joplin
%%abc-version 2.0
%%abcx-abcm2ps-target-version 5.9.1 (29 Sep 2008)
%%abc-creator hum2abc beta
%%abcx-conversion-date 2021/07/20 09:00:58
%%abc-copyright 2021 Craig Stuart Sapp
%%abc-edited-by Craig Stuart Sapp
%%abc-edited-by Craig Stuart Sapp
%%abcx-initial-encoding-date 2005/03/30
%%humdrum-veritas 6062864
%%humdrum-veritas-data 293703055
%%removed 0's from note length
%%linebreak <none>
%%barnumbers 0
L: 1/8
M: 2/4
N: Derived from elite.krn
Q: "INTRODUCTION." 1/4=100
%%staves {1 2}
V: 1 clef=treble
V: 2 clef=bass
K: F
[V:1] c'/a/g/f/- f/a/g/f/ | 
[V:2] c/A/G/F/- F/A/G/F/ | 
[V:1] g/f/d/c/- c/F/G/A/ | 
[V:2] G/F/D/C/- C/F,/G,/A,/ | 
[V:1] C/GF/ EG | 
[V:2] C,/G,F,/ E,G, | 
[V:1] [cGE] z/ C/ z/ D/z/E/ ]|:  
[V:2] C [C,C,,][D,D,,][E,E,,] ]|:  
[V:1] z/ F/d/[c/A/F/]- [c/A/F/]d/[cA^D] | 
[V:2] [F,3F,,3][^F,^F,,] | 
[V:1] z/ E/d/[c/B/E/]- [c/B/E/]d/[cBE] | 
[V:2] [G,3G,,3][^G,^G,,] | 
[V:1] z/ [c/A/F/]z/[c/A/] z/ [_c/_A/]z/[B/G/] | 
[V:2] [A,A,,][_E_E,] [DD,][_D_D,] | 
[V:1] A/c/d/f/x2 & F_A [ecG][geB] | 
[V:2] [CC,][=B,=B,,] [_B,_B,,][C,C,,] | 
[V:1] [a/f/A/]^g/a/c'/- c'/a/=g/f/ | 
[V:2] F,,[FCA,] A,,[FCA,] | 
[V:1] g/f/d/f/- f/d/c/A/ | 
[V:2] B,,[FDB,] A,,[FCA,] | 
[V:1] G/g/f/e/ d/A=B/ | 
[V:2] =B,,[F=B,G,] G,,[FB,G,] | 
[V:1] c z [c'ec] z | 
[V:2] [EC] z [CC,][C,C,,] | 
[V:1] z/ F/d/[c/A/F/]- [c/A/F/]d/[cA^D] | 
[V:2] [F,3F,,3][^F,^F,,] | 
[V:1] z/ E/d/[c/B/E/]- [c/B/E/]d/[cBE] | 
[V:2] [G,3G,,3][^G,^G,,] | 
[V:1] z/ [c/A/F/]z/[c/A/] z/ [_c/_A/]z/[B/G/] | 
[V:2] [A,A,,][_E_E,] [DD,][_D_D,] | 
[V:1] A/c/d/f/x2 & F_A [ecG][geB] | 
[V:2] [CC,][=B,=B,,] [_B,_B,,][C,C,,] | 
[V:1] [a/f/A/]^g/a/c'/- c'/a/=g/f/ | 
[V:2] F,,[FCA,] A,,[FCA,] | 
[V:1] g/f/d/c/- c/d/A/G/ | 
[V:2] B,,[FDB,] A,,[FCA,] | 
[V:1] [F/=B,/]G/[AFB,] [G/E/_B,/][GEB,][C/B,/] |[1 
[V:2] [D,D,,][D,D,,] [C,C,,][E,E,,] | 
[V:1] [FA,] z/ C/ z/ D/z/E/ :|][2 
[V:2] [F,F,,] [C,C,,][D,D,,][E,E,,] :|]  
[V:1] [FA,] c/c/ cc | 
[V:2] [F,F,,] zz2 | 
[V:1] e/d/c/B/ A/BG/ | 
[V:2] G,[ECB,] C,[ECB,] | 
[V:1] F/G/A/C/- C/A/G/F/ | 
[V:2] F,[CA,] C,[CA,] | 
[V:1] E/F/G/C/- C/B/A/G/ | 
[V:2] G,[CB,] C,[CB,] | 
[V:1] F/A/d/c/- cc | 
[V:2] F,[CA,] A,[FC] | 
[V:1] e/d/c/B/ A/BE/ | 
[V:2] G,[ECB,] E,[^CB,G,] | 
[V:1] F/E/F/A/- A/A/G/F/ | 
[V:2] D,[DA,F,] D,[DA,F,] | 
[V:1] E/c/=B/A/ ^G/BE/ | 
[V:2] E,[CA,] E,[D^G,] | 
[V:1] A z[c2B2E2] | 
[V:2] [CA,] z[C2C,2] | 
[V:1] e/d/c/B/ A/BG/ | 
[V:2] G,[ECB,] C,[EC] | 
[V:1] F/G/A/C/- C/A/G/F/ | 
[V:2] F,[CA,] C,[CA,] | 
[V:1] E/F/G/C/- C/B/A/G/ | 
[V:2] G,[CB,] C,[CB,] | 
[V:1] F/A/d/c/- cc | 
[V:2] F,[CA,] C,[CA,] | 
[V:1] [d/B/]g[d/B/]- [d/B/]g/[dB] | 
[V:2] B,,[DB,G,] B,,[DB,G,] | 
[V:1] [c/A/]f[c/A/]- [c/A/]f/[cA] | 
[V:2] C,[CA,] C,[CA,] | 
[V:1] B/G/d/c/- c/B/E |[1 
[V:2] C,[ECB,] C,[CB,G,] | 
[V:1] Fc/c/ cc :|][2 
[V:2] [CA,F,] zz2 :|]  
[V:1] F z/ C/ z/ D/z/E/ | 
[V:2] [CA,F,] [C,C,,][D,D,,][E,E,,] | 
[V:1] z/ F/d/[c/A/F/]- [c/A/F/]d/[cA^D] | 
[V:2] [F,3F,,3][^F,^F,,] | 
[V:1] z/ E/d/[c/B/E/]- [c/B/E/]d/[cBE] | 
[V:2] [G,3G,,3][^G,^G,,] | 
[V:1] z/ [c/A/F/]z/[c/A/] z/ [_c/_A/]z/[B/G/] | 
[V:2] [A,A,,][_E_E,] [DD,][_D_D,] | 
[V:1] A/c/d/f/x2 & F_A [ecG][geB] | 
[V:2] [CC,][=B,=B,,] [_B,_B,,][C,C,,] | 
[V:1] [a/f/A/]^g/a/c'/- c'/a/=g/f/ | 
[V:2] F,,[FCA,] A,,[FCA,] | 
[V:1] g/f/d/f/- f/d/c/A/ | 
[V:2] B,,[FDB,] A,,[FCA,] | 
[V:1] G/g/f/e/ d/A=B/ | 
[V:2] =B,,[F=B,G,] G,,[FB,G,] | 
[V:1] c z [c'ec] z | 
[V:2] [EC] z [CC,][C,C,,] | 
[V:1] z/ F/d/[c/A/F/]- [c/A/F/]d/[cA^D] | 
[V:2] [F,3F,,3][^F,^F,,] | 
[V:1] z/ E/d/[c/B/E/]- [c/B/E/]d/[cBE] | 
[V:2] [G,3G,,3][^G,^G,,] | 
[V:1] z/ [c/A/F/]z/[c/A/] z/ [_c/_A/]z/[B/G/] | 
[V:2] [A,A,,][_E_E,] [DD,][_D_D,] | 
[V:1] A/c/d/f/x2 & F_A [ecG][geB] | 
[V:2] [CC,][=B,=B,,] [_B,_B,,][C,C,,] | 
[V:1] [a/f/A/]g/a/c'/- c'/a/=g/f/ | 
[V:2] F,,[FCA,] A,,[FCA,] | 
[V:1] g/f/d/c/- c/d/A/G/ | 
[V:2] B,,[FDB,] A,,[FCA,] | 
[V:1] [F/=B,/]G/[AFB,] [G/E/_B,/][GEB,][C/B,/] | 
[V:2] [D,D,,][D,D,,] [C,C,,][E,E,,] | 
[V:1] [FA,] z[f2_e2A2] ||  
[V:2] [F,F,,] z[F,2F,,2] ||  
[V:1]  [K:Bb] [d/B/]g/f/e/ d/c/B/d/ | 
[V:2]  [K:Bb] B,,[DB,F,] D,[DB,F,] | 
[V:1] c/B/G/F/- F/bg/ | 
[V:2] E,[EB,G,] D,[DB,F,] | 
[V:1] f/g/f/d/ B/c/d/[c/A/]- | 
[V:2] B,,[DB,F,] C,[=ECB,] | 
[V:1] [c3A3]F | 
[V:2] [_EA,F,][F,F,,] [G,G,,][A,A,,] | 
[V:1] d/g/f/e/ d/e/d/c/ | 
[V:2] [B,B,,][DB,F,] D,[DC^F,] | 
[V:1] B/A/G/B/- B/d/c/B/ | 
[V:2] G,[DB,] G,[DB,] | 
[V:1] A/d/f/a/ g/f=e/ | 
[V:2] A,[FD] A,[G^C] | 
[V:1] d z[f2_e2A2] | 
[V:2] [FD] z[F,2F,,2] | 
[V:1] [d/B/]g/f/e/ d/c/B/d/ | 
[V:2] [B,,B,,,][DB,F,] D,[DB,F,] | 
[V:1] c/B/G/F/- F/bg/ | 
[V:2] E,[EB,G,] D,[DB,F,] | 
[V:1] f/g/f/d/ B/c/d/[c/A/]- | 
[V:2] B,,[DB,F,] C,[=ECB,] | 
[V:1] [c3A3]F | 
[V:2] [_EA,F,][F,F,,] [G,G,,][A,A,,] | 
[V:1] d/^c/d/e/ f/=e/f/^f/ | 
[V:2] [B,B,,][DB,F,] D,[DB,F,] | 
[V:1] g/^f/g/b/- b/b/a/g/ | 
[V:2] E,[EB,G,] =E,[^CB,G,] | 
[V:1] f/d'/c'/f/ g/e/c/A/ |[1 
[V:2] F,[DB,] F,,[EA,F,] | 
[V:1] B=E/F/ G/A/B/c/ :|][2 
[V:2] [DB,] zz2 :|]  
[V:1] B3z/ [b/B/]- ]|: 
[V:2] D3x & B,[B,,B,,,] [C,C,,][D,D,,] ]|:  
[V:1] [b/B/]e/[c'/c/]e/ g/[bB]e/ | 
[V:2] [E,E,,][EB,G,] [EB,G,][D,D,,] | 
[V:1] [c'/c/]e/g/[b/B/]- [b/B/][c'c][b/B/] | 
[V:2] [E,E,,][F,F,,] [G,G,,][A,A,,] | 
[V:1] [f/F/]B/[g/G/]B/ d/[fF]B/ | 
[V:2] [B,B,,][DB,F,] [DB,F,][^C^C,] | 
[V:1] [g/G/]B/d/[f/-F/] [f/F/][gG]B/ | 
[V:2] [DD,][DB,F,] [DB,F,][F,F,,] | 
[V:1] [f/F/]A/[g/G/]A/ c/[fF]A/ | 
[V:2] [CC,][EA,F,] [EA,F,][F,F,,] | 
[V:1] [g/G/]A/c/[f/F/]- [f/F/][gG]A/ | 
[V:2] [CC,][EA,F,] [CC,][^C^C,] | 
[V:1] [f/F/]B/[g/G/]B/ d/[fF]B/ | 
[V:2] [DD,][DB,F,] [DB,F,][F,F,,] | 
[V:1] [g/G/]B/d/[f/F/]- [f/F/][fF][b/B/]- | 
[V:2] [B,B,,][DB,F,] [DB,F,][D,D,,] | 
[V:1] [b/B/]e/[c'/c/]e/ g/[bB]e/ | 
[V:2] [E,E,,][EB,G,] [EB,G,][D,D,,] | 
[V:1] [c'/c/]e/g/[b/B/]- [b/B/][c'c][b/B/] | 
[V:2] [E,E,,][F,F,,] [G,G,,][A,A,,] | 
[V:1] [f/F/]B/[g/G/]B/ d/[fF]B/ | 
[V:2] [B,B,,][DB,F,] F,,[DB,F,] | 
[V:1] [g/G/]B/d/[f/F/]- [f/F/][fF][_d/=E/]- | 
[V:2] B,,[DB,F,] F,,[DB,F,] | 
[V:1] [d/E/]B/[_d/=E/]B/ c/[dE]B/ | 
[V:2] [_G,_G,,][_D_D,] [B,B,,][G,G,,] | 
[V:1] [=d/F/]B/c/[d/F/]- [d/F/][dF][f/F/]- | 
[V:2] [F,F,,][=D=D,] [B,B,,][F,F,,] | 
[V:1] [f/F/]c/[g/G/]c/ e/[aA][b/B/]- |[1 
[V:2] [CC,][EA,F,] [F,F,,][EA,F,] | 
[V:1] [b2B2]z3/ [b/B/]- :|][2 
[V:2] D2[C,C,,][D,D,,] & B,[B,,B,,,]x2 :|]  
[V:1] [b2B2][bdB] z |]  
[V:2] D2[B,,B,,,] z & B,[F,F,,]x2 |]  


